X:87
T:Mills are Grinding, The
T:Turtle's Reel, The
T:Tuttle's Reel
T:Porthole of the Kelp, The
T:Customs Gap, The
R:reel
D:Kevin Burke: Up Close.
Z:id:hn-reel-87
M:C|
K:Ddor
A,DDE FEFG|A2Gc Ad~d2|A,DDE F2dB|cAGE FDEC|
A,DDE FEFG|A2Gc Ad~d2|fded dcAB|1 cAGE FDEC:|2 cAGE EDD2||
|:d2dB c2cG|AddB cAGA|d2dB cdcA|GEcE EDD2|
d2dB c2cG|Addc d2de|fded dcAB|1 cAGE EDD2:|2 cAGE FDEC||
<end>
<start>
